X: 21173
M: 2/4
L: 1/16
K: G
V: 1 name="6"
d2 |\
gfed gfed | d3c B2d2 | dcBA GFED | G2B2 G2d2 |\
gfed gfed | d3c B3d | dcBA GFED | G2B2G2 H|]
gfed gfed | d^cd=c Bc^cd | d=cBA GFED | G2B2"^D.C."G2 |]
d2 |\
^c2eg g2ec | d2df a2fd | ceag fedc | dfe^c d2d2 |\
gfed gfed | edef agfe | dgBd dcBA | G2g2"^D.C."g2 |]


